X:26
T:Juniper Hill
D:Fine Friday: Mowing the Machair (2005)
R:Waltz
M:3/4
K:A
|: c2 cd cB | BA E2 A2 | c3 d c/B/A | e4 c2 |
   d3 e dc | cB E2 e2 | g3 a gf | f2 e2 d2 |
   c2 cd cB | BA E2 A2 | c3 d c/B/A | e4 c2 |
   d2 b3 a | g2 B3 c | A3 B A2 |1 A4 ed :|2 A4 cd |
|: e2 ef ec | fe c2 cd | e2 ef ec | a4 c2 |
   d2 de d2 | b2 g2 e2 | B2 Bc BG | E2 e2 d2 |
   c2 cd cB | BA E2 A2 | c3 d c/B/A | e4 c2 |
   d2 b3 a | g2 B3 c | A3 B A2 |1 A4 cd :|2 A4 ed ||

